X: 1
T: Battle of Waterloo
R: March
M:4/4
L:1/8
K:Amix
ed/B/ | A2AB AG GA | c>d ec d2 ef/g/ | a>g ed ed BA | G>G GA G2ed/B/ |
A2AB AG GA | c>d ec d2 ef/g/ | a>g ed ed BG | A4 A2> |
g2 | a>g ed cd ef  | g>a ge g2 ef/g/ | a>g ed ed BA | G>G GA G2ed/B/ |
A2AB AG GA | c>d ec d2 ef/g/ | a>g ed ed BG | A4 A2> |
